assets/features/payment-flow/search.svg

<svg width="17" height="17" viewBox="0 0 17 17" fill="none" xmlns="http://www.w3.org/2000/svg">
<path d="M6.91699 13.834C8.31445 13.834 9.62402 13.4121 10.7139 12.6914L14.5635 16.5498C14.8184 16.7959 15.1436 16.9189 15.4951 16.9189C16.2246 16.9189 16.7607 16.3477 16.7607 15.627C16.7607 15.293 16.6465 14.9678 16.4004 14.7217L12.5771 10.8809C13.3682 9.75586 13.834 8.39355 13.834 6.91699C13.834 3.11133 10.7227 0 6.91699 0C3.12012 0 0 3.11133 0 6.91699C0 10.7227 3.11133 13.834 6.91699 13.834ZM6.91699 11.9883C4.13086 11.9883 1.8457 9.70312 1.8457 6.91699C1.8457 4.13086 4.13086 1.8457 6.91699 1.8457C9.70312 1.8457 11.9883 4.13086 11.9883 6.91699C11.9883 9.70312 9.70312 11.9883 6.91699 11.9883Z" fill="#3C4A66"/>
</svg>

<svg xmlns="http://www.w3.org/2000/svg" width="17" height="17" fill="none" viewBox="0 0 17 17"><path fill="#3c4a66" d="M6.917 13.834a6.87 6.87 0 0 0 3.797-1.143l3.85 3.859c.254.246.58.369.931.369.73 0 1.266-.571 1.266-1.292 0-.334-.114-.66-.36-.905l-3.824-3.841a6.86 6.86 0 0 0 1.257-3.964C13.834 3.111 10.723 0 6.917 0 3.12 0 0 3.111 0 6.917s3.111 6.917 6.917 6.917m0-1.846c-2.786 0-5.071-2.285-5.071-5.071S4.13 1.846 6.917 1.846s5.071 2.285 5.071 5.071-2.285 5.071-5.071 5.071"/></svg>
